app/client/src/assets/icons/blueprintjs/16px/cube-add.svg

<?xml version="1.0" encoding="UTF-8"?>
<svg width="16px" height="16px" viewBox="0 0 16 16" version="1.1" xmlns="http://www.w3.org/2000/svg" xmlns:xlink="http://www.w3.org/1999/xlink">
    <!-- Generator: Sketch 52.3 (67297) - http://www.bohemiancoding.com/sketch -->
    <title>Artboard</title>
    <desc>Created with Sketch.</desc>
    <g id="Artboard" stroke="none" stroke-width="1" fill="none" fill-rule="evenodd">
        <path d="M14,2 L15,2 C15.5522847,2 16,2.44771525 16,3 C16,3.55228475 15.5522847,4 15,4 L14,4 L14,5 C14,5.55228475 13.5522847,6 13,6 C12.4477153,6 12,5.55228475 12,5 L12,4 L11,4 C10.4477153,4 10,3.55228475 10,3 C10,2.44771525 10.4477153,2 11,2 L12,2 L12,1 C12,0.44771525 12.4477153,1.01453063e-16 13,0 C13.5522847,-1.01453063e-16 14,0.44771525 14,1 L14,2 Z M9.13604922,0.649170982 C8.44387329,1.19872806 8,2.04752795 8,3 C8,4.3537679 8.89669129,5.49810232 10.1285353,5.8714647 C10.1461766,5.92966908 10.1655391,5.98712523 10.1865637,6.0437739 L8,7.41037618 L1.80625275,3.53928415 L7.50386106,0.283507965 C7.81129373,0.107832154 8.18870627,0.107832154 8.49613894,0.283507965 L9.13604922,0.649170982 Z M15,7.23610651 L15,11.4196775 C15,11.7785343 14.8077139,12.1098778 14.4961389,12.2879206 L8.5,15.7142857 L8.5,8.27712382 L10.68679,6.91038005 C11.2370488,7.57591314 12.068999,8 13,8 C13.7683544,8 14.4692435,7.71114643 15,7.23610651 Z M1.05620201,4.24975008 L7.5,8.27712382 L7.5,15.7142857 L1.50386106,12.2879206 C1.19228606,12.1098778 1,11.7785343 1,11.4196775 L1,4.58032254 C1,4.46598225 1.01952108,4.35443515 1.05620201,4.24975008 Z" id="Combined-Shape" fill="#000000" fill-rule="nonzero"></path>
    </g>
</svg>

<svg xmlns="http://www.w3.org/2000/svg" width="16" height="16"><path fill-rule="nonzero" d="M14 2h1a1 1 0 0 1 0 2h-1v1a1 1 0 0 1-2 0V4h-1a1 1 0 0 1 0-2h1V1a1 1 0 0 1 2 0v1ZM9.136.65a3.001 3.001 0 0 0 .992 5.222c.018.058.038.115.059.172L8 7.41 1.806 3.54 7.504.283a1 1 0 0 1 .992 0l.64.365ZM15 7.235v4.184a1 1 0 0 1-.504.868L8.5 15.714V8.277l2.187-1.367A2.994 2.994 0 0 0 13 8c.768 0 1.47-.289 2-.764ZM1.056 4.25 7.5 8.277v7.437l-5.996-3.426A1 1 0 0 1 1 11.42V4.58a1 1 0 0 1 .056-.33Z"/></svg>
